X:1
T:Schottis efter Ernst Dahlgren
R:Schottis
S:Efter Ernst Dahlgren
O:Långban, Värmland
B:
Z:ABC-transkribering av Per Saxholm
M:2/4
L:1/8
K:D
|:DF AD|B2B2|DF Ad|f2f2|fe gf|e2e2|ed fe|dBAF|DF AD|B2B2|DF Ad|f2f2|fe gf|eA ce|de dc|1 d4:|2 d3 d|]BBBd|BBBd|AAAd|F2Fd|ccce|ccce|df af|d3d|BBBd|BBBd|AAAd|F2Fd|ccce|cA GE|D2dc|1 d3 d:|2 d4|]

